build/img/icon-category/icon-category-1.svg

<svg width="28" height="23" viewBox="0 0 28 23" fill="none" xmlns="http://www.w3.org/2000/svg">
<path d="M13.9995 3.27368V21.8176" stroke="#2C8ECC" stroke-width="2" stroke-miterlimit="10"/>
<path d="M20.021 1.0918C16.7366 1.0918 13.9997 2.50986 13.9997 4.36426C13.9997 2.50986 11.2627 1.0918 7.97835 1.0918C4.694 1.0918 1.95703 2.50986 1.95703 4.36426V22.9082C1.95703 21.0538 4.694 19.6357 7.97835 19.6357C11.2627 19.6357 13.9997 21.0538 13.9997 22.9082C13.9997 21.0538 16.7366 19.6357 20.021 19.6357C23.3054 19.6357 26.0423 21.0538 26.0423 22.9082V4.36426C26.0423 2.50986 23.3054 1.0918 20.021 1.0918Z" stroke="#2C8ECC" stroke-width="2" stroke-miterlimit="10" stroke-linecap="square"/>
</svg>

<svg width="28" height="23" fill="none" xmlns="http://www.w3.org/2000/svg"><path d="M14 3.274v18.544" stroke="#2C8ECC" stroke-width="2" stroke-miterlimit="10"/><path d="M20.021 1.092C16.737 1.092 14 2.51 14 4.364c0-1.854-2.737-3.272-6.022-3.272-3.284 0-6.021 1.418-6.021 3.272v18.544c0-1.854 2.737-3.272 6.021-3.272 3.285 0 6.022 1.418 6.022 3.272 0-1.854 2.737-3.272 6.021-3.272s6.021 1.418 6.021 3.272V4.364c0-1.854-2.737-3.272-6.021-3.272z" stroke="#2C8ECC" stroke-width="2" stroke-miterlimit="10" stroke-linecap="square"/></svg>
